icons/desktop/16/svg/forward-16.svg

<svg width="16" height="16" viewBox="0 0 16 16" fill="none" xmlns="http://www.w3.org/2000/svg">
<path d="M8.88379 2.21804C9.17679 1.92504 9.65231 1.92504 9.94531 2.21804L14.4883 6.76101C14.8192 7.091 15.001 7.53135 15.001 7.99831C15.0009 8.46506 14.819 8.90472 14.4883 9.23562L9.94531 13.7786C9.79931 13.9246 9.60704 13.9993 9.41504 13.9993L9.41406 14.0003C9.22211 14.0003 9.02978 13.9275 8.88379 13.7805C8.59083 13.4876 8.5909 13.012 8.88379 12.719L12.8525 8.75027H1.75C1.33586 8.75027 1.00012 8.41438 1 8.00027C1 7.58605 1.33579 7.25027 1.75 7.25027H12.8545L8.88379 3.27859C8.5912 2.9856 8.59103 2.51093 8.88379 2.21804Z" fill="black"/>
</svg>

<!-- This Source Code Form is subject to the terms of the Mozilla Public
   - License, v. 2.0. If a copy of the MPL was not distributed with this
   - file, You can obtain one at http://mozilla.org/MPL/2.0/. -->
<svg xmlns="http://www.w3.org/2000/svg" width="16" height="16" fill="context-fill" fill-opacity="context-fill-opacity" viewBox="0 0 16 16">
    <path d="M8.884 2.218a.75.75 0 0 1 1.061 0l4.543 4.543c.331.33.513.77.513 1.237s-.182.907-.513 1.238l-4.543 4.543a.75.75 0 0 1-.53.22V14a.751.751 0 0 1-.53-1.281L12.85 8.75H1.75a.75.75 0 0 1 0-1.5h11.105L8.884 3.28a.75.75 0 0 1 0-1.061" />
</svg>
